X: 1308
T: Kiss the Maid Behind the Barrel
R:Reel
N:Collected by Kennedy
B:O'Neill's 1308
Z:Transcribed by Trish O'Neil
M:C|
L:1/8
K:G
DGGc AGGF|DGGB cAGF|DGGc AGA^c|de=fd cA^FA:|
dg {a}(3gfg ag {a}(3gfg|dg {a}(3gfg agfe|d=f {g}(3fef af {g}(3fef|de=fd cA^FA|
dg {a}(3gfg ag {a}(3gfg|dg {a}(3gfg agfg|afge =fdec|d=feg fdcA||
G2(dG) BGdG|G2(dG) cAFA|G2(dG) AGA^c|de=fd cAFA|
G2(dG) BGdG|G2(dG) cAFA|G2GBA2A^c|de=fd cA^FA||
B2BGA2Ac|BABc dedc|B2BGA2A^c|de=fd cA^FA :|


